src/main/resources/static/fa/svgs/solid/synagogue.svg

<svg xmlns="http://www.w3.org/2000/svg" viewBox="0 0 640 512"><!--! Font Awesome Free 6.5.2 by @fontawesome - https://fontawesome.com License - https://fontawesome.com/license/free (Icons: CC BY 4.0, Fonts: SIL OFL 1.1, Code: MIT License) Copyright 2024 Fonticons, Inc. --><path d="M309.8 3.7c5.9-4.9 14.6-4.9 20.5 0l121 100.8C469.5 119.7 480 142.2 480 166V280.1 512H464 352V416c0-17.7-14.3-32-32-32s-32 14.3-32 32v96H176 160V280.1 166c0-23.7 10.5-46.3 28.8-61.5L309.8 3.7zM512 512V244.5l28.1-31.2c3-3.4 7.4-5.3 11.9-5.3s8.9 1.9 11.9 5.3l63.8 70.9c7.9 8.8 12.3 20.3 12.3 32.1V448c0 35.3-28.7 64-64 64H512zM128 244.5V512H64c-35.3 0-64-28.7-64-64V316.3c0-11.9 4.4-23.3 12.3-32.1l63.8-70.9c3-3.4 7.4-5.3 11.9-5.3s8.9 1.9 11.9 5.3L128 244.5zM327 124.3c-3.1-5.4-10.9-5.4-13.9 0l-15.9 28.1-32.3-.3c-6.2-.1-10.1 6.7-7 12.1L274.3 192l-16.4 27.8c-3.2 5.4 .7 12.1 7 12.1l32.3-.3L313 259.7c3.1 5.4 10.9 5.4 13.9 0l15.9-28.1 32.3 .3c6.2 .1 10.1-6.7 7-12.1L365.7 192l16.4-27.8c3.2-5.4-.7-12.1-7-12.1l-32.3 .3L327 124.3z"/></svg>

<svg xmlns="http://www.w3.org/2000/svg" viewBox="0 0 640 512"><!--! Font Awesome Free 6.1.1 by @fontawesome - https://fontawesome.com License - https://fontawesome.com/license/free (Icons: CC BY 4.0, Fonts: SIL OFL 1.1, Code: MIT License) Copyright 2022 Fonticons, Inc. --><path d="M309.8 3.708C315.7-1.236 324.3-1.236 330.2 3.708L451.2 104.5C469.5 119.7 480 142.2 480 165.1V512H384V384C384 348.7 355.3 320 320 320C284.7 320 256 348.7 256 384V512H160V165.1C160 142.2 170.5 119.7 188.8 104.5L309.8 3.708zM326.1 124.3C323.9 118.9 316.1 118.9 313 124.3L297.2 152.4L264.9 152.1C258.7 152.1 254.8 158.8 257.9 164.2L274.3 191.1L257.9 219.8C254.8 225.2 258.7 231.9 264.9 231.9L297.2 231.6L313 259.7C316.1 265.1 323.9 265.1 326.1 259.7L342.8 231.6L375.1 231.9C381.3 231.9 385.2 225.2 382.1 219.8L365.7 191.1L382.1 164.2C385.2 158.8 381.3 152.1 375.1 152.1L342.8 152.4L326.1 124.3zM512 244.5L540.1 213.3C543.1 209.9 547.5 208 552 208C556.5 208 560.9 209.9 563.9 213.3L627.7 284.2C635.6 292.1 640 304.4 640 316.3V448C640 483.3 611.3 512 576 512H512V244.5zM128 244.5V512H64C28.65 512 0 483.3 0 448V316.3C0 304.4 4.389 292.1 12.32 284.2L76.11 213.3C79.14 209.9 83.46 208 88 208C92.54 208 96.86 209.9 99.89 213.3L128 244.5z"/></svg>
